docs/assets/images/simple-illustration__creditcards--green.svg

<svg width="48" height="48" viewBox="0 0 48 48" fill="none" xmlns="http://www.w3.org/2000/svg">
<path d="M37.9478 19.8308H4.74108C3.76387 19.8308 2.97168 20.623 2.97168 21.6002V39.713C2.97168 40.6902 3.76387 41.4824 4.74108 41.4824H37.9478C38.925 41.4824 39.7172 40.6902 39.7172 39.713V21.6002C39.7172 20.623 38.925 19.8308 37.9478 19.8308Z" fill="#03D47C"/>
<path d="M37.6537 19.7319H4.93168C3.76344 19.7319 2.81641 20.679 2.81641 21.8472V39.2564C2.81641 40.4247 3.76344 41.3717 4.93168 41.3717H37.6537C38.8219 41.3717 39.769 40.4247 39.769 39.2564V21.8472C39.769 20.679 38.8219 19.7319 37.6537 19.7319Z" stroke="#002140" stroke-width="0.705875" stroke-linecap="round" stroke-linejoin="round"/>
<path d="M6.30566 37.8447H11.3009" stroke="#002140" stroke-width="0.705875" stroke-linecap="round" stroke-linejoin="round"/>
<path d="M13.5903 37.8447H18.5879" stroke="#002140" stroke-width="0.705875" stroke-linecap="round" stroke-linejoin="round"/>
<path d="M11.3714 29.0332H10.4255C10.1994 29.0332 10.0161 29.2165 10.0161 29.4426V31.1391C10.0161 31.3652 10.1994 31.5485 10.4255 31.5485H11.3714C11.5975 31.5485 11.7808 31.3652 11.7808 31.1391V29.4426C11.7808 29.2165 11.5975 29.0332 11.3714 29.0332Z" fill="#00B268"/>
<path d="M12.7127 26.5249H11.2986C11.0725 26.5249 10.8892 26.7082 10.8892 26.9343V28.7555C10.8892 28.9816 11.0725 29.1649 11.2986 29.1649H12.7127C12.9388 29.1649 13.1221 28.9816 13.1221 28.7555V26.9343C13.1221 26.7082 12.9388 26.5249 12.7127 26.5249Z" fill="#8DC8FF"/>
<path d="M13.6351 29.4355H12.6892C12.4631 29.4355 12.2798 29.6188 12.2798 29.845V31.1132C12.2798 31.3393 12.4631 31.5226 12.6892 31.5226H13.6351C13.8612 31.5226 14.0445 31.3393 14.0445 31.1132V29.845C14.0445 29.6188 13.8612 29.4355 13.6351 29.4355Z" fill="#00B268"/>
<path d="M15.4754 26.5249H14.0613C13.8352 26.5249 13.6519 26.7082 13.6519 26.9343V29.4331C13.6519 29.6592 13.8352 29.8425 14.0613 29.8425H15.4754C15.7015 29.8425 15.8848 29.6592 15.8848 29.4331V26.9343C15.8848 26.7082 15.7015 26.5249 15.4754 26.5249Z" fill="#8DC8FF"/>
<path d="M9.59299 31.1202V26.8567C9.59299 26.6355 9.41416 26.4543 9.19064 26.4543H7.73182C7.60712 26.4543 7.49183 26.5108 7.41419 26.6096L6.91772 27.2496C6.86361 27.3202 6.83301 27.4073 6.83301 27.4967V30.5931C6.83301 30.6755 6.8589 30.7555 6.90596 30.8214L7.27771 31.3555C7.35301 31.4637 7.47772 31.5272 7.60948 31.5272L9.19299 31.5202C9.41417 31.5202 9.59299 31.339 9.59299 31.1178V31.1202Z" fill="#00B268"/>
<path d="M43.1634 14.5436L10.8553 6.87052C9.90454 6.64472 8.95074 7.23242 8.72494 8.18318L4.53965 25.8058C4.31384 26.7565 4.90154 27.7103 5.85231 27.9361L38.1604 35.6092C39.1111 35.835 40.0649 35.2473 40.2907 34.2965L44.476 16.6739C44.7018 15.7232 44.1141 14.7694 43.1634 14.5436Z" fill="#085239"/>
<path d="M42.9013 14.3833L11.0649 6.82227C9.92824 6.55233 8.788 7.25491 8.51806 8.39152L4.49533 25.3296C4.22539 26.4662 4.92797 27.6065 6.06459 27.8764L37.9011 35.4375C39.0377 35.7074 40.1779 35.0048 40.4479 33.8682L44.4706 16.9301C44.7405 15.7935 44.038 14.6532 42.9013 14.3833Z" stroke="#002140" stroke-width="0.705875" stroke-linecap="round" stroke-linejoin="round"/>
<path d="M8.21143 24.7649L13.0725 25.9178" stroke="#002140" stroke-width="0.705875" stroke-linecap="round" stroke-linejoin="round"/>
<path d="M15.3013 26.4473L20.1624 27.6025" stroke="#002140" stroke-width="0.705875" stroke-linecap="round" stroke-linejoin="round"/>
<path d="M15.6312 18.1602L14.7865 17.9596C14.5665 17.9073 14.3458 18.0433 14.2936 18.2633L13.9277 19.804C13.8754 20.024 14.0114 20.2447 14.2314 20.2969L15.0761 20.4975C15.2961 20.5498 15.5168 20.4138 15.5691 20.1938L15.935 18.6531C15.9872 18.4331 15.8512 18.2125 15.6312 18.1602Z" fill="#008C59"/>
<path d="M16.2099 15.8199L15.3651 15.6193C15.1451 15.567 14.9244 15.703 14.8722 15.923L14.6009 17.0653C14.5486 17.2853 14.6846 17.506 14.9046 17.5582L15.7494 17.7589C15.9693 17.8111 16.19 17.6751 16.2423 17.4551L16.5136 16.3128C16.5658 16.0928 16.4298 15.8721 16.2099 15.8199Z" fill="#008C59"/>
<path d="M17.6449 19.034L16.8002 18.8334C16.5802 18.7811 16.3595 18.9171 16.3073 19.1371L16.036 20.2794C15.9837 20.4994 16.1197 20.7201 16.3397 20.7724L17.1844 20.973C17.4044 21.0252 17.6251 20.8892 17.6773 20.6693L17.9486 19.5269C18.0009 19.3069 17.8649 19.0862 17.6449 19.034Z" fill="#008C59"/>
<path d="M18.2396 16.3021L17.3949 16.1014C17.1749 16.0492 16.9542 16.1852 16.902 16.4052L16.5122 18.0466C16.4599 18.2665 16.5959 18.4872 16.8159 18.5395L17.6606 18.7401C17.8806 18.7923 18.1013 18.6564 18.1535 18.4364L18.5434 16.795C18.5956 16.575 18.4596 16.3543 18.2396 16.3021Z" fill="#008C59"/>
<path d="M13.5317 19.7155L14.4728 15.7508C14.5222 15.5438 14.3952 15.3391 14.1881 15.2897L12.8328 14.9673C12.7176 14.9391 12.5952 14.9673 12.5034 15.0403L11.9011 15.525C11.8352 15.5791 11.7882 15.652 11.767 15.7344L11.0823 18.612C11.0635 18.6873 11.0705 18.7673 11.0987 18.8402L11.327 19.419C11.374 19.5367 11.4752 19.6237 11.5976 19.652L13.0705 19.9955C13.2752 20.0426 13.4823 19.9155 13.5317 19.7108V19.7155Z" fill="#008C59"/>
<path d="M39.7256 17.1059L27.7575 14.2635C26.8257 14.0422 25.8909 14.6182 25.6696 15.55L25.3347 16.9601C25.1134 17.8919 25.6894 18.8267 26.6212 19.048L38.5893 21.8904C39.5211 22.1117 40.4559 21.5357 40.6772 20.6039L41.0121 19.1937C41.2334 18.2619 40.6574 17.3272 39.7256 17.1059Z" fill="#03D47C"/>
<path d="M33.5688 34.7906C33.5076 36.6659 31.9383 38.1341 30.063 38.0729C28.1877 38.0117 26.7195 36.4424 26.7807 34.5671C26.7948 34.0988 26.9054 33.6541 27.0912 33.2542" fill="#00B268"/>
</svg>

<svg xmlns="http://www.w3.org/2000/svg" width="48" height="48" fill="none" viewBox="0 0 48 48"><path fill="#03d47c" d="M37.948 19.83H4.74a1.77 1.77 0 0 0-1.77 1.77v18.113c0 .977.793 1.77 1.77 1.77h33.207a1.77 1.77 0 0 0 1.77-1.77V21.6a1.77 1.77 0 0 0-1.77-1.77"/><path stroke="#002140" stroke-linecap="round" stroke-linejoin="round" stroke-width=".706" d="M37.654 19.732H4.932a2.115 2.115 0 0 0-2.116 2.115v17.41c0 1.168.947 2.115 2.116 2.115h32.722a2.115 2.115 0 0 0 2.115-2.116V21.847a2.115 2.115 0 0 0-2.115-2.115M6.306 37.845H11.3m2.29 0h4.998"/><path fill="#00b268" d="M11.371 29.033h-.946a.41.41 0 0 0-.409.41v1.696c0 .226.183.41.41.41h.945a.41.41 0 0 0 .41-.41v-1.696a.41.41 0 0 0-.41-.41"/><path fill="#8dc8ff" d="M12.713 26.525h-1.414a.41.41 0 0 0-.41.41v1.82c0 .227.184.41.41.41h1.414a.41.41 0 0 0 .41-.41v-1.82a.41.41 0 0 0-.41-.41"/><path fill="#00b268" d="M13.635 29.436h-.946a.41.41 0 0 0-.41.409v1.268c0 .226.184.41.41.41h.946a.41.41 0 0 0 .41-.41v-1.268a.41.41 0 0 0-.41-.41"/><path fill="#8dc8ff" d="M15.475 26.525h-1.414a.41.41 0 0 0-.41.41v2.498c0 .226.184.41.41.41h1.414a.41.41 0 0 0 .41-.41v-2.499a.41.41 0 0 0-.41-.41"/><path fill="#00b268" d="M9.593 31.12v-4.263a.4.4 0 0 0-.402-.403H7.73a.4.4 0 0 0-.317.156l-.496.64a.4.4 0 0 0-.085.247v3.096c0 .082.026.163.073.228l.372.534c.075.109.2.172.331.172l1.584-.007c.221 0 .4-.181.4-.402z"/><path fill="#085239" d="M43.163 14.544 10.855 6.87a1.77 1.77 0 0 0-2.13 1.312L4.54 25.806a1.77 1.77 0 0 0 1.312 2.13L38.16 35.61a1.77 1.77 0 0 0 2.13-1.312l4.186-17.623a1.77 1.77 0 0 0-1.313-2.13"/><path stroke="#002140" stroke-linecap="round" stroke-linejoin="round" stroke-width=".706" d="m42.901 14.383-31.836-7.56a2.115 2.115 0 0 0-2.547 1.569L4.495 25.33a2.115 2.115 0 0 0 1.57 2.546L37.9 35.437a2.115 2.115 0 0 0 2.547-1.569L44.47 16.93a2.115 2.115 0 0 0-1.57-2.547M8.211 24.765l4.861 1.153m2.229.529 4.861 1.156"/><path fill="#008c59" d="m15.631 18.16-.844-.2a.41.41 0 0 0-.493.303l-.366 1.541a.41.41 0 0 0 .303.493l.845.2a.41.41 0 0 0 .493-.303l.366-1.54a.41.41 0 0 0-.304-.494m.579-2.34-.845-.2a.41.41 0 0 0-.493.303l-.271 1.142a.41.41 0 0 0 .304.493l.844.2a.41.41 0 0 0 .493-.303l.272-1.142a.41.41 0 0 0-.304-.493m1.435 3.214-.845-.2a.41.41 0 0 0-.493.303l-.271 1.142a.41.41 0 0 0 .304.493l.844.201a.41.41 0 0 0 .493-.304l.272-1.142a.41.41 0 0 0-.304-.493m.595-2.732-.845-.2a.41.41 0 0 0-.493.303l-.39 1.642a.41.41 0 0 0 .304.492l.845.201a.41.41 0 0 0 .492-.304l.39-1.641a.41.41 0 0 0-.303-.493m-4.708 3.414.94-3.965a.38.38 0 0 0-.284-.461l-1.355-.323a.39.39 0 0 0-.33.073l-.602.485a.4.4 0 0 0-.134.21l-.685 2.877a.4.4 0 0 0 .017.228l.228.579a.39.39 0 0 0 .27.233l1.473.343a.386.386 0 0 0 .462-.284z"/><path fill="#03d47c" d="m39.726 17.106-11.968-2.843a1.734 1.734 0 0 0-2.088 1.287l-.335 1.41a1.734 1.734 0 0 0 1.286 2.088L38.59 21.89a1.734 1.734 0 0 0 2.088-1.286l.335-1.41a1.734 1.734 0 0 0-1.286-2.088"/><path fill="#00b268" d="M33.569 34.79a3.395 3.395 0 0 1-3.506 3.283 3.395 3.395 0 0 1-2.972-4.819"/></svg>
